X: 25211
T: Malfunction Junction
R: reel
M: 4/4
K: Adorian
eA~A2 GAAG|~A2Bd eA~A2|~G2GB dGBd|eede edBd|
eA~A2 GAAG|~A2Bd eA~A2|~G2GB dGBd|eedB A2(3B^cd:|
|:eaaa fggf|edBd eA~A2|GAAG Bdde|~e2de edBd|
eaaa fggf|edBd eA~A2|~G2GB dGBd|eedB A2(3B^cd:|

